!!!OTL: IST EDEL GLEICH DAS REBENNASS
!!!ARE: Europa, Mitteleuropa, Deutschland
!!!SCT: F0698
!!!YEM: Copyright 1995, estate of Helmut Schaffrath.
**kern
*ICvox
*Ivox
*M2/4
*k[b-]
*F:
{8c
=1
8d
8c
8Bn
8c
=2
8.f
16e
8d}
{8c
=3
8B-
8B-
8A
8B-
=4
8.g
16e
8c}
{8B-
=5
8A
8c
8d
8e
=6
4f}
{8c
8c
=7
8.d
16c
8B-
8A
=8
2G}
=9
{4e
8c
8c
=10
8.d
16c
8d
8e
=11
2c}
=12
{4e
8c
8c
=13
8.d
16c
8d
8e
=14
8c}
{8c
8.f
16c
=15
8d
8B-
8A
8G
=16
8A}
{8c
8.f
16c
=17
8d
8g
8f
8e
=18
4f
8r}
==
!!!AGN: Geselligkeits -, Bundes -, Trink - Lied
!!!ONB: ESAC (Essen Associative Code) Database: FINK
!!!AMT: simple duple
!!!AIN: vox
!!!EED: Helmut Schaffrath
!!!EEV: 1.0
*-
